X:1
T: Atholl House
C:
R:Strathspey
Q:128
K:D
M:4/4
L:1/16
|:d2|AD3 F3D AD3 BAGF|AD3 F3D CE3 E3d|AD3 F3D A3F d3A|BAGF A3A, B,D3 D2d2|
AD3 F3D AD3 BAGF|AD3 F3D CE3 E3d|AD3 F3D A3F d3A|BAGF A3A, B,D3 D2A2|
d4 fedc d3A FA3|D3A BAGF GE3 E3F|d4 fed2 Ad3 F3A|Bcd2 cde2 Ad3 d3A|
d3A ad3 c3A ge3|f3d Ad3 ce3 e3g|f3d Ad3 B3G EG3|F3D A3A, B,D3 D2:|
